X:1
T:Title
%%score { ( 1 4 ) | ( 2 3 ) }
L:1/8
M:6/8
K:Db
V:1 treble nm="Grand Piano"
V:4 treble 
V:2 bass 
V:3 bass 
V:1
 z3 z2[Q:1/4=100] D | F>_F=F G>FG | A3 F3 | [B,E]>[B,F][B,G] [DF]2 [CE] |[M:5/8] F-F- F3 | %5
[M:1/8] D |[M:3/4] F>_F =FG- G/F/G | A3 F3 | [B,E]>[B,F] [B,G] [A,DF]2[K:bass] [G,CE] | %9
[M:5/8] [F,D]-[F,D]- [F,D]3 |[M:1/8][K:treble] [DFA] |[M:3/4] [Fd]2 [Fd]d- d/c/B | [FA]3 [DF]3 | %13
 [CE]>[DF] [EG] [DF]2 [CE] |[M:5/8] [DF]-[DF]- [DF]3 |[M:1/8] [FA] | %16
[M:3/4] [Fd]2 [Fd]d- d/c/[DGB] | [DFA]3 [A,DF]3 | [A,CE]>[A,DF] [A,EG] [A,DF]2[K:bass] [G,CE] | %19
[M:5/8] [F,D]-[F,D]- [F,D]3 |[M:3/16][K:treble] [FA]/G | %21
[M:3/4] [A,DF]>[A,EG] [A,FA] [DGB]2 [A,DF] | [CG]6 | [CE]>[DF] [EG] [CA]2 [CE] | %24
[M:5/8] [DF]-[DF]- [DF]3 |[M:1/8] [DFA] |[M:3/4] [Fd]2 [Fd][Gd]- [Gd]/[Gc]/[GB] | %27
[M:7/8] [FA]3 D3 D/[DE]/ |[M:3/4] [DF]>[D_F] [D=F] [CG]2 C |[M:5/8] D-D- D3 |] %30
V:2
 z3 z2 [D,F,] | [A,D]>[=G,D][D,A,D] [A,C]2 [E,A,B,] | [F,A,D]3 [D,A,D]3 | %3
 [G,,G,]>[G,,G,][G,,E,] [A,,A,]2 [A,,A,] |[M:5/8] [D,A,D]-[D,A,D]- [D,A,D]3 |[M:1/8] [D,F,] | %6
[M:3/4] [A,D]>[=G,D] [D,A,D][A,C]- [A,C]/-[=D,A,C]/[E,A,C] | [F,A,D]3 [D,A,D]3 | %8
 [G,,G,]>[G,,G,] [G,,E,] A,,2 A,, |[M:5/8] D,-D,- D,3 |[M:1/8] D, |[M:3/4] z2 z .B,3 | %12
 [D,D]3 [D,A,]3 | [A,,A,]>[A,,A,] [A,,A,] [A,,A,]2 [A,,A,] |[M:5/8] [D,A,]-[D,A,]- [D,A,]3 | %15
[M:1/8] [D,D] |[M:3/4] z2 z .B,3 | D,3 D,3 | A,,>A,, A,, A,,2 A,, |[M:5/8] D,-D,- D,3 | %20
[M:3/16] z/ E |[M:3/4] D,>D, D, D,2 D, | E,2 E, E,2 [E,A,C] | %23
 [A,,A,]>[A,,A,] [A,,A,] [A,,E,]2 [A,,A,] |[M:5/8] [D,A,]2 D, D,2 |[M:1/8] D, | %26
[M:3/4] [D,A,]2 [D,A,][D,B,]- [D,B,]/[D,C]/[D,D] |[M:7/8] [D,D]3 [B,,=G,]3 [=A,,G,]/[A,,G,]/ | %28
[M:3/4] [A,,A,]>[A,,=G,] [A,,A,] [A,,E,]2 [A,,_G,A,] |[M:5/8] [D,F,A,]-[D,F,A,]- [D,F,A,]3 |] %30
V:3
 x6 | .D,3 E,3/2.=D,3/2 | x6 | x6 |[M:5/8] x5 |[M:1/8] x |[M:3/4] D,2 z .E,3 | x6 | x6 | %9
[M:5/8] x5 |[M:1/8] x |[M:3/4] [D,A,]2 [D,A,][G,G]- [G,G]/-[G,CG]/[G,DG] | x6 | x6 |[M:5/8] x5 | %15
[M:1/8] x |[M:3/4] [D,A,]2 [D,A,][G,G]- [G,G]/-[G,CG]/G, | x6 | x6 |[M:5/8] x5 |[M:3/16] [D,D]3/2 | %21
[M:3/4] x6 | x6 | x6 |[M:5/8] x5 |[M:1/8] x |[M:3/4] x6 |[M:7/8] x7 |[M:3/4] x6 |[M:5/8] x5 |] %30
V:4
 x6 | x6 | x6 | x6 |[M:5/8] x5 |[M:1/8] x |[M:3/4] x6 | x6 | x5[K:bass] x |[M:5/8] x5 | %10
[M:1/8][K:treble] x |[M:3/4] x6 | x6 | x6 |[M:5/8] x5 |[M:1/8] x |[M:3/4] x6 | x6 | x5[K:bass] x | %19
[M:5/8] x5 |[M:3/16][K:treble] x3/2 |[M:3/4] x6 | A,2 A, A,2 G | x6 |[M:5/8] z2 A, A,2 |[M:1/8] x | %26
[M:3/4] x6 |[M:7/8] x7 |[M:3/4] x6 |[M:5/8] x5 |] %30

